src/images/svg/dark-waves.svg

<svg
	width="100%"
	height="100%"
	id="svg"
	viewBox="0 0 1440 490"
	xmlns="http://www.w3.org/2000/svg"
	class="transition duration-300 ease-in-out delay-150"
>
	<style>
		.path-0 {
			animation: pathAnim-0 4s;
			animation-timing-function: linear;
			animation-iteration-count: infinite;
		}
		@keyframes pathAnim-0 {
			0% {
				d: path(
					'M 0,500 C 0,500 0,166 0,166 C 57.90455049944505,179.58682944876062 115.8091009988901,193.17365889752128 165,179 C 214.1908990011099,164.82634110247872 254.66814650388454,122.89219385867554 313,128 C 371.33185349611546,133.10780614132446 447.5183129855716,185.25756566777656 502,193 C 556.4816870144284,200.74243433222344 589.258601553829,164.07754347021825 638,145 C 686.741398446171,125.92245652978174 751.4472807991121,124.43226045135036 806,122 C 860.5527192008879,119.56773954864964 904.9522752497224,116.1934147243803 951,110 C 997.0477247502776,103.8065852756197 1044.7436182019978,94.7940806511284 1102,104 C 1159.2563817980022,113.2059193488716 1226.0732519422866,140.63026267110615 1284,154 C 1341.9267480577134,167.36973732889385 1390.9633740288568,166.68486866444692 1440,166 C 1440,166 1440,500 1440,500 Z'
				);
			}
			25% {
				d: path(
					'M 0,500 C 0,500 0,166 0,166 C 45.8609446294241,150.07147613762487 91.7218892588482,134.1429522752497 152,135 C 212.2781107411518,135.8570477247503 286.97338759403135,153.49966703662597 349,157 C 411.02661240596865,160.50033296337403 460.38456036502646,149.8583795782464 498,141 C 535.6154396349735,132.1416204217536 561.4883709458627,125.06681465038844 621,145 C 680.5116290541373,164.93318534961156 773.661955851523,211.8743618201998 823,219 C 872.338044148477,226.1256381798002 877.8638056480453,193.4357380688124 931,168 C 984.1361943519547,142.5642619311876 1084.8828215562955,124.3826859045505 1144,132 C 1203.1171784437045,139.6173140954495 1220.604908126773,173.03351831298556 1263,183 C 1305.395091873227,192.96648168701444 1372.6975459366136,179.48324084350722 1440,166 C 1440,166 1440,500 1440,500 Z'
				);
			}
			50% {
				d: path(
					'M 0,500 C 0,500 0,166 0,166 C 47.476828215562946,183.28000986558146 94.95365643112589,200.5600197311629 148,200 C 201.0463435688741,199.4399802688371 259.66220249105936,181.03993094092982 312,174 C 364.33779750894064,166.96006905907018 410.3975336046368,171.28025650511776 463,180 C 515.6024663953632,188.71974349488224 574.7476630903935,201.8390430385991 633,189 C 691.2523369096065,176.1609569614009 748.6118140337895,137.36357134048586 799,141 C 849.3881859662105,144.63642865951414 892.8050807744482,190.7066715994574 944,208 C 995.1949192255518,225.2933284005426 1054.167862868418,213.80974226168453 1108,188 C 1161.832137131582,162.19025773831547 1210.5234677518804,122.05435935380441 1265,116 C 1319.4765322481196,109.94564064619559 1379.73826612406,137.97282032309778 1440,166 C 1440,166 1440,500 1440,500 Z'
				);
			}
			75% {
				d: path(
					'M 0,500 C 0,500 0,166 0,166 C 63.955259588111986,158.25966210383524 127.91051917622397,150.51932420767048 185,156 C 242.08948082377603,161.48067579232952 292.31318288321614,180.1823652731533 336,170 C 379.68681711678386,159.8176347268467 416.83674929091137,120.75121469971637 465,110 C 513.1632507090886,99.24878530028363 572.3398199531384,116.81277592798125 634,150 C 695.6601800468616,183.18722407201875 759.8039708965348,231.99768158835863 808,220 C 856.1960291034652,208.00231841164137 888.4442964607226,135.19649771858428 941,115 C 993.5557035392774,94.80350228141572 1066.4188432605747,127.21632753730424 1129,138 C 1191.5811567394253,148.78367246269576 1243.8803304969788,137.9381921321988 1294,139 C 1344.1196695030212,140.0618078678012 1392.0598347515106,153.03090393390062 1440,166 C 1440,166 1440,500 1440,500 Z'
				);
			}
			100% {
				d: path(
					'M 0,500 C 0,500 0,166 0,166 C 57.90455049944505,179.58682944876062 115.8091009988901,193.17365889752128 165,179 C 214.1908990011099,164.82634110247872 254.66814650388454,122.89219385867554 313,128 C 371.33185349611546,133.10780614132446 447.5183129855716,185.25756566777656 502,193 C 556.4816870144284,200.74243433222344 589.258601553829,164.07754347021825 638,145 C 686.741398446171,125.92245652978174 751.4472807991121,124.43226045135036 806,122 C 860.5527192008879,119.56773954864964 904.9522752497224,116.1934147243803 951,110 C 997.0477247502776,103.8065852756197 1044.7436182019978,94.7940806511284 1102,104 C 1159.2563817980022,113.2059193488716 1226.0732519422866,140.63026267110615 1284,154 C 1341.9267480577134,167.36973732889385 1390.9633740288568,166.68486866444692 1440,166 C 1440,166 1440,500 1440,500 Z'
				);
			}
		}
	</style>
	<path
		d="M 0,500 C 0,500 0,166 0,166 C 57.90455049944505,179.58682944876062 115.8091009988901,193.17365889752128 165,179 C 214.1908990011099,164.82634110247872 254.66814650388454,122.89219385867554 313,128 C 371.33185349611546,133.10780614132446 447.5183129855716,185.25756566777656 502,193 C 556.4816870144284,200.74243433222344 589.258601553829,164.07754347021825 638,145 C 686.741398446171,125.92245652978174 751.4472807991121,124.43226045135036 806,122 C 860.5527192008879,119.56773954864964 904.9522752497224,116.1934147243803 951,110 C 997.0477247502776,103.8065852756197 1044.7436182019978,94.7940806511284 1102,104 C 1159.2563817980022,113.2059193488716 1226.0732519422866,140.63026267110615 1284,154 C 1341.9267480577134,167.36973732889385 1390.9633740288568,166.68486866444692 1440,166 C 1440,166 1440,500 1440,500 Z"
		stroke="none"
		stroke-width="0"
		fill="#003566"
		fill-opacity="0.53"
		class="transition-all duration-300 ease-in-out delay-150 path-0"
	></path>
	<style>
		.path-1 {
			animation: pathAnim-1 4s;
			animation-timing-function: linear;
			animation-iteration-count: infinite;
		}
		@keyframes pathAnim-1 {
			0% {
				d: path(
					'M 0,500 C 0,500 0,333 0,333 C 58.82382537920829,316.4710568504131 117.64765075841657,299.94211370082627 165,320 C 212.35234924158343,340.05788629917373 248.233222345542,396.70260204710814 306,386 C 363.766777654458,375.29739795289186 443.4194598594155,297.2474781107412 493,274 C 542.5805401405845,250.75252188925882 562.0889382167961,282.30748550992723 610,309 C 657.9110617832039,335.69251449007277 734.2247872734,357.52257984954986 794,344 C 853.7752127266,330.47742015045014 897.0119126896044,281.6021950918732 953,280 C 1008.9880873103956,278.3978049081268 1077.7275619681834,324.06863978295723 1137,341 C 1196.2724380318166,357.93136021704277 1246.0778394376619,346.1232457762979 1295,340 C 1343.9221605623381,333.8767542237021 1391.961080281169,333.4383771118511 1440,333 C 1440,333 1440,500 1440,500 Z'
				);
			}
			25% {
				d: path(
					'M 0,500 C 0,500 0,333 0,333 C 66.80794179306942,343.80522875816996 133.61588358613884,354.61045751633986 186,355 C 238.38411641386116,355.38954248366014 276.34440744851406,345.36339869281045 333,347 C 389.65559255148594,348.63660130718955 465.00648661980506,361.9359477124183 509,362 C 552.9935133801949,362.0640522875817 565.6296460722654,348.89281045751636 617,359 C 668.3703539277346,369.10718954248364 758.4749290911333,402.4928104575163 823,395 C 887.5250709088667,387.5071895424837 926.4706375632013,339.13594771241833 971,325 C 1015.5293624367987,310.86405228758167 1065.6425206560612,330.9633986928105 1117,325 C 1168.3574793439388,319.0366013071895 1220.9592798125539,287.0104575163399 1275,284 C 1329.0407201874461,280.9895424836601 1384.520360093723,306.99477124183005 1440,333 C 1440,333 1440,500 1440,500 Z'
				);
			}
			50% {
				d: path(
					'M 0,500 C 0,500 0,333 0,333 C 68.88602787026761,308.11707978789 137.77205574053522,283.23415957578 181,282 C 224.22794425946478,280.76584042422 241.79780490812675,303.1804414847701 298,325 C 354.20219509187325,346.8195585152299 449.0367246269577,368.0440744851399 508,359 C 566.9632753730423,349.9559255148601 590.0552965840425,310.64326057467014 639,307 C 687.9447034159575,303.35673942532986 762.7420890368726,335.3828832161796 815,343 C 867.2579109631274,350.6171167838204 896.9763472684671,333.82520656061166 947,341 C 997.0236527315329,348.17479343938834 1067.352521889259,379.3162905413738 1122,379 C 1176.647478110741,378.6837094586262 1215.6135651744974,346.9096312738931 1266,334 C 1316.3864348255026,321.0903687261069 1378.1932174127514,327.0451843630534 1440,333 C 1440,333 1440,500 1440,500 Z'
				);
			}
			75% {
				d: path(
					'M 0,500 C 0,500 0,333 0,333 C 46.83255641879393,306.9887532371439 93.66511283758786,280.97750647428785 142,276 C 190.33488716241214,271.02249352571215 240.17210506844253,287.0787273399926 296,285 C 351.82789493155747,282.9212726600074 413.6464668886422,262.70758416574176 476,288 C 538.3535331113578,313.29241583425824 601.2420273769886,384.09093599704033 660,388 C 718.7579726230114,391.90906400295967 773.3854236034035,328.9286718460969 825,326 C 876.6145763965965,323.0713281539031 925.216278209397,380.194376618572 971,371 C 1016.783721790603,361.805623381428 1059.7494635590087,286.29382167961523 1108,289 C 1156.2505364409913,291.70617832038477 1209.785867554569,372.63033666296707 1266,393 C 1322.214132445431,413.36966333703293 1381.1070662227155,373.1848316685165 1440,333 C 1440,333 1440,500 1440,500 Z'
				);
			}
			100% {
				d: path(
					'M 0,500 C 0,500 0,333 0,333 C 58.82382537920829,316.4710568504131 117.64765075841657,299.94211370082627 165,320 C 212.35234924158343,340.05788629917373 248.233222345542,396.70260204710814 306,386 C 363.766777654458,375.29739795289186 443.4194598594155,297.2474781107412 493,274 C 542.5805401405845,250.75252188925882 562.0889382167961,282.30748550992723 610,309 C 657.9110617832039,335.69251449007277 734.2247872734,357.52257984954986 794,344 C 853.7752127266,330.47742015045014 897.0119126896044,281.6021950918732 953,280 C 1008.9880873103956,278.3978049081268 1077.7275619681834,324.06863978295723 1137,341 C 1196.2724380318166,357.93136021704277 1246.0778394376619,346.1232457762979 1295,340 C 1343.9221605623381,333.8767542237021 1391.961080281169,333.4383771118511 1440,333 C 1440,333 1440,500 1440,500 Z'
				);
			}
		}
	</style>
	<path
		d="M 0,500 C 0,500 0,333 0,333 C 58.82382537920829,316.4710568504131 117.64765075841657,299.94211370082627 165,320 C 212.35234924158343,340.05788629917373 248.233222345542,396.70260204710814 306,386 C 363.766777654458,375.29739795289186 443.4194598594155,297.2474781107412 493,274 C 542.5805401405845,250.75252188925882 562.0889382167961,282.30748550992723 610,309 C 657.9110617832039,335.69251449007277 734.2247872734,357.52257984954986 794,344 C 853.7752127266,330.47742015045014 897.0119126896044,281.6021950918732 953,280 C 1008.9880873103956,278.3978049081268 1077.7275619681834,324.06863978295723 1137,341 C 1196.2724380318166,357.93136021704277 1246.0778394376619,346.1232457762979 1295,340 C 1343.9221605623381,333.8767542237021 1391.961080281169,333.4383771118511 1440,333 C 1440,333 1440,500 1440,500 Z"
		stroke="none"
		stroke-width="0"
		fill="#003566"
		fill-opacity="1"
		class="transition-all duration-300 ease-in-out delay-150 path-1"
	></path>
</svg>

<svg width="100%" height="100%" id="prefix__svg" viewBox="0 0 1440 490" xmlns="http://www.w3.org/2000/svg" class="prefix__transition prefix__duration-300 prefix__ease-in-out prefix__delay-150"><style>@keyframes pathAnim-0{0%,to{d:path(&apos;M 0,500 C 0,500 0,166 0,166 C 57.90455049944505,179.58682944876062 115.8091009988901,193.17365889752128 165,179 C 214.1908990011099,164.82634110247872 254.66814650388454,122.89219385867554 313,128 C 371.33185349611546,133.10780614132446 447.5183129855716,185.25756566777656 502,193 C 556.4816870144284,200.74243433222344 589.258601553829,164.07754347021825 638,145 C 686.741398446171,125.92245652978174 751.4472807991121,124.43226045135036 806,122 C 860.5527192008879,119.56773954864964 904.9522752497224,116.1934147243803 951,110 C 997.0477247502776,103.8065852756197 1044.7436182019978,94.7940806511284 1102,104 C 1159.2563817980022,113.2059193488716 1226.0732519422866,140.63026267110615 1284,154 C 1341.9267480577134,167.36973732889385 1390.9633740288568,166.68486866444692 1440,166 C 1440,166 1440,500 1440,500 Z&apos;)}25%{d:path(&apos;M 0,500 C 0,500 0,166 0,166 C 45.8609446294241,150.07147613762487 91.7218892588482,134.1429522752497 152,135 C 212.2781107411518,135.8570477247503 286.97338759403135,153.49966703662597 349,157 C 411.02661240596865,160.50033296337403 460.38456036502646,149.8583795782464 498,141 C 535.6154396349735,132.1416204217536 561.4883709458627,125.06681465038844 621,145 C 680.5116290541373,164.93318534961156 773.661955851523,211.8743618201998 823,219 C 872.338044148477,226.1256381798002 877.8638056480453,193.4357380688124 931,168 C 984.1361943519547,142.5642619311876 1084.8828215562955,124.3826859045505 1144,132 C 1203.1171784437045,139.6173140954495 1220.604908126773,173.03351831298556 1263,183 C 1305.395091873227,192.96648168701444 1372.6975459366136,179.48324084350722 1440,166 C 1440,166 1440,500 1440,500 Z&apos;)}50%{d:path(&apos;M 0,500 C 0,500 0,166 0,166 C 47.476828215562946,183.28000986558146 94.95365643112589,200.5600197311629 148,200 C 201.0463435688741,199.4399802688371 259.66220249105936,181.03993094092982 312,174 C 364.33779750894064,166.96006905907018 410.3975336046368,171.28025650511776 463,180 C 515.6024663953632,188.71974349488224 574.7476630903935,201.8390430385991 633,189 C 691.2523369096065,176.1609569614009 748.6118140337895,137.36357134048586 799,141 C 849.3881859662105,144.63642865951414 892.8050807744482,190.7066715994574 944,208 C 995.1949192255518,225.2933284005426 1054.167862868418,213.80974226168453 1108,188 C 1161.832137131582,162.19025773831547 1210.5234677518804,122.05435935380441 1265,116 C 1319.4765322481196,109.94564064619559 1379.73826612406,137.97282032309778 1440,166 C 1440,166 1440,500 1440,500 Z&apos;)}75%{d:path(&apos;M 0,500 C 0,500 0,166 0,166 C 63.955259588111986,158.25966210383524 127.91051917622397,150.51932420767048 185,156 C 242.08948082377603,161.48067579232952 292.31318288321614,180.1823652731533 336,170 C 379.68681711678386,159.8176347268467 416.83674929091137,120.75121469971637 465,110 C 513.1632507090886,99.24878530028363 572.3398199531384,116.81277592798125 634,150 C 695.6601800468616,183.18722407201875 759.8039708965348,231.99768158835863 808,220 C 856.1960291034652,208.00231841164137 888.4442964607226,135.19649771858428 941,115 C 993.5557035392774,94.80350228141572 1066.4188432605747,127.21632753730424 1129,138 C 1191.5811567394253,148.78367246269576 1243.8803304969788,137.9381921321988 1294,139 C 1344.1196695030212,140.0618078678012 1392.0598347515106,153.03090393390062 1440,166 C 1440,166 1440,500 1440,500 Z&apos;)}}</style><path d="M0 500V166c57.905 13.587 115.81 27.174 165 13s89.668-56.108 148-51c58.332 5.108 134.518 57.258 189 65 54.482 7.742 87.259-28.922 136-48s113.447-20.568 168-23c54.553-2.432 98.952-5.807 145-12s93.744-15.206 151-6 124.073 36.63 182 50c57.927 13.37 106.963 12.685 156 12v334z" stroke-width="0" fill="#003566" fill-opacity=".53" class="prefix__transition-all prefix__duration-300 prefix__ease-in-out prefix__delay-150" style="animation:pathAnim-0 4s;animation-timing-function:linear;animation-iteration-count:infinite"/><style>@keyframes pathAnim-1{0%,to{d:path(&apos;M 0,500 C 0,500 0,333 0,333 C 58.82382537920829,316.4710568504131 117.64765075841657,299.94211370082627 165,320 C 212.35234924158343,340.05788629917373 248.233222345542,396.70260204710814 306,386 C 363.766777654458,375.29739795289186 443.4194598594155,297.2474781107412 493,274 C 542.5805401405845,250.75252188925882 562.0889382167961,282.30748550992723 610,309 C 657.9110617832039,335.69251449007277 734.2247872734,357.52257984954986 794,344 C 853.7752127266,330.47742015045014 897.0119126896044,281.6021950918732 953,280 C 1008.9880873103956,278.3978049081268 1077.7275619681834,324.06863978295723 1137,341 C 1196.2724380318166,357.93136021704277 1246.0778394376619,346.1232457762979 1295,340 C 1343.9221605623381,333.8767542237021 1391.961080281169,333.4383771118511 1440,333 C 1440,333 1440,500 1440,500 Z&apos;)}25%{d:path(&apos;M 0,500 C 0,500 0,333 0,333 C 66.80794179306942,343.80522875816996 133.61588358613884,354.61045751633986 186,355 C 238.38411641386116,355.38954248366014 276.34440744851406,345.36339869281045 333,347 C 389.65559255148594,348.63660130718955 465.00648661980506,361.9359477124183 509,362 C 552.9935133801949,362.0640522875817 565.6296460722654,348.89281045751636 617,359 C 668.3703539277346,369.10718954248364 758.4749290911333,402.4928104575163 823,395 C 887.5250709088667,387.5071895424837 926.4706375632013,339.13594771241833 971,325 C 1015.5293624367987,310.86405228758167 1065.6425206560612,330.9633986928105 1117,325 C 1168.3574793439388,319.0366013071895 1220.9592798125539,287.0104575163399 1275,284 C 1329.0407201874461,280.9895424836601 1384.520360093723,306.99477124183005 1440,333 C 1440,333 1440,500 1440,500 Z&apos;)}50%{d:path(&apos;M 0,500 C 0,500 0,333 0,333 C 68.88602787026761,308.11707978789 137.77205574053522,283.23415957578 181,282 C 224.22794425946478,280.76584042422 241.79780490812675,303.1804414847701 298,325 C 354.20219509187325,346.8195585152299 449.0367246269577,368.0440744851399 508,359 C 566.9632753730423,349.9559255148601 590.0552965840425,310.64326057467014 639,307 C 687.9447034159575,303.35673942532986 762.7420890368726,335.3828832161796 815,343 C 867.2579109631274,350.6171167838204 896.9763472684671,333.82520656061166 947,341 C 997.0236527315329,348.17479343938834 1067.352521889259,379.3162905413738 1122,379 C 1176.647478110741,378.6837094586262 1215.6135651744974,346.9096312738931 1266,334 C 1316.3864348255026,321.0903687261069 1378.1932174127514,327.0451843630534 1440,333 C 1440,333 1440,500 1440,500 Z&apos;)}75%{d:path(&apos;M 0,500 C 0,500 0,333 0,333 C 46.83255641879393,306.9887532371439 93.66511283758786,280.97750647428785 142,276 C 190.33488716241214,271.02249352571215 240.17210506844253,287.0787273399926 296,285 C 351.82789493155747,282.9212726600074 413.6464668886422,262.70758416574176 476,288 C 538.3535331113578,313.29241583425824 601.2420273769886,384.09093599704033 660,388 C 718.7579726230114,391.90906400295967 773.3854236034035,328.9286718460969 825,326 C 876.6145763965965,323.0713281539031 925.216278209397,380.194376618572 971,371 C 1016.783721790603,361.805623381428 1059.7494635590087,286.29382167961523 1108,289 C 1156.2505364409913,291.70617832038477 1209.785867554569,372.63033666296707 1266,393 C 1322.214132445431,413.36966333703293 1381.1070662227155,373.1848316685165 1440,333 C 1440,333 1440,500 1440,500 Z&apos;)}}</style><path d="M0 500V333c58.824-16.529 117.648-33.058 165-13 47.352 20.058 83.233 76.703 141 66 57.767-10.703 137.42-88.753 187-112 49.58-23.247 69.089 8.307 117 35 47.911 26.693 124.225 48.523 184 35 59.775-13.523 103.012-62.398 159-64 55.988-1.602 124.728 44.069 184 61 59.272 16.931 109.078 5.123 158-1s96.961-6.562 145-7v167z" stroke-width="0" fill="#003566" class="prefix__transition-all prefix__duration-300 prefix__ease-in-out prefix__delay-150" style="animation:pathAnim-1 4s;animation-timing-function:linear;animation-iteration-count:infinite"/></svg>
